X: 3
T: Obama's March to the White House
C: Greg Canote 2007
R: reel
Z: 2012 John Chambers <jc:trillian.mit.edu>
F: http://info.therealschoolofmusic.com/Portals/13037/docs/ObamasMarch.pdf 2012-11-13
F: http://www.mne.psu.edu/lamancusa/tunes/ObamasMarch.pdf
F: http://www.youtube.com/watch?v=VlseV_lIhYs
P: AEAC# Tuning
M: C|
L: 1/8
K: A
c2e2 |\
ef3 (3efec2 | [B4E4] (3BcBAB |  c2c2- cBAG | (3FGFEE ccec |\
f3e (3efec2 | B3B AB3 | c4 c3d | cABc A2ec |
f3e fec2 | [B4E4] (3BcBAB | c2cd cBAG | F2E2 EEFG |\
A3(A, A2)AF | E2C2 (3B,CB,A,B, | [E4A,4] [E3A,3][EB,] | [E4A,4] :|
E2A2 |\
F6 F2 | E4 ABcA | B4 G4 | A4 E2FG |\
A3(A, A2)AF | E2C2 (3B,CB,A,C | B,4 B,A,B,C | B,A,B,B, A,2A2 |
F2FE FGAF | ECA,C ABcA | B2Bc dcBc | A2E2 E2FG |\
A3(A, A2)AF | E2C2 (3B,CB,A,B, | A,4 A,3B, | A,4 |]
